svg/furnaceFront.svg

<?xml version="1.0" encoding="UTF-8" standalone="no"?>
<!-- Created with Inkscape (http://www.inkscape.org/) -->

<svg
   width="32"
   height="32"
   viewBox="0 0 8.4666666 8.4666668"
   version="1.1"
   id="svg5"
   inkscape:version="1.1.2 (b8e25be8, 2022-02-05)"
   sodipodi:docname="furnaceFront.svg"
   xmlns:inkscape="http://www.inkscape.org/namespaces/inkscape"
   xmlns:sodipodi="http://sodipodi.sourceforge.net/DTD/sodipodi-0.dtd"
   xmlns="http://www.w3.org/2000/svg"
   xmlns:svg="http://www.w3.org/2000/svg"
   xmlns:rdf="http://www.w3.org/1999/02/22-rdf-syntax-ns#"
   xmlns:cc="http://creativecommons.org/ns#">
  <sodipodi:namedview
     id="namedview7"
     pagecolor="#ffffff"
     bordercolor="#111111"
     borderopacity="1"
     inkscape:pageshadow="0"
     inkscape:pageopacity="0"
     inkscape:pagecheckerboard="1"
     inkscape:document-units="mm"
     showgrid="true"
     width="32mm"
     units="px"
     objecttolerance="10000"
     guidetolerance="10000"
     inkscape:snap-perpendicular="true"
     inkscape:snap-tangential="true"
     inkscape:zoom="34.90625"
     inkscape:cx="16"
     inkscape:cy="16"
     inkscape:window-width="2560"
     inkscape:window-height="1301"
     inkscape:window-x="0"
     inkscape:window-y="25"
     inkscape:window-maximized="0"
     inkscape:current-layer="layer1">
    <inkscape:grid
       type="xygrid"
       id="grid9"
       units="px"
       empspacing="4" />
  </sodipodi:namedview>
  <defs
     id="defs2" />
  <g
     inkscape:label="Layer 1"
     inkscape:groupmode="layer"
     id="layer1">
    <path
       id="rect2582"
       style="fill:#000000;fill-opacity:1;stroke:none;stroke-width:0.999999"
       d="M 8 20 A 3.9999998 3.9999998 0 0 0 4 24 L 4 32 L 28 32 L 28 24 A 3.9999998 3.9999998 0 0 0 24 20 L 8 20 z "
       transform="scale(0.26458333)" />
    <path
       id="path2817"
       style="fill:#000000;fill-opacity:1;stroke:none;stroke-width:0.264583"
       d="M 2.1166666,1.058333 A 1.0583333,1.0583333 0 0 0 1.0583333,2.1166664 V 4.233333 H 7.4083332 V 2.1166664 A 1.0583333,1.0583333 0 0 0 6.3499999,1.058333 Z" />
  </g>
  <metadata
     id="metadata33">
    <rdf:RDF>
      <cc:Work
         rdf:about="">
        <cc:license
           rdf:resource="http://creativecommons.org/licenses/by-sa/4.0/" />
      </cc:Work>
      <cc:License
         rdf:about="http://creativecommons.org/licenses/by-sa/4.0/">
        <cc:permits
           rdf:resource="http://creativecommons.org/ns#Reproduction" />
        <cc:permits
           rdf:resource="http://creativecommons.org/ns#Distribution" />
        <cc:requires
           rdf:resource="http://creativecommons.org/ns#Notice" />
        <cc:requires
           rdf:resource="http://creativecommons.org/ns#Attribution" />
        <cc:permits
           rdf:resource="http://creativecommons.org/ns#DerivativeWorks" />
        <cc:requires
           rdf:resource="http://creativecommons.org/ns#ShareAlike" />
      </cc:License>
    </rdf:RDF>
  </metadata>
</svg>

<svg width="32" height="32" viewBox="0 0 8.467 8.467" xmlns="http://www.w3.org/2000/svg"><path style="fill:#000;fill-opacity:1;stroke:none;stroke-width:.999999" d="M8 20a4 4 0 0 0-4 4v8h24v-8a4 4 0 0 0-4-4H8z" transform="scale(.26458)"/><path style="fill:#000;fill-opacity:1;stroke:none;stroke-width:.264583" d="M2.117 1.058a1.058 1.058 0 0 0-1.059 1.059v2.116h6.35V2.117A1.058 1.058 0 0 0 6.35 1.058Z"/></svg>
